X:1
T:Be Ye Also Ready
T:James McGranahan
T:Be Ye Also Ready
T:Public Domain
T:Public Domain
T:Public Domain
C:James McGranahan
Z:Public Domain
%%score ( 1 2 ) ( 3 4 )
L:1/8
M:4/4
K:G
V:1 treble 
V:2 treble 
V:3 bass 
V:4 bass 
V:1
 DD | [DG]<[DG] [DG][DG] [DG]<[DB] [DA][DG] | [DG][DF][DF][DF] [DF]2 [DF][DG] | %3
w: 1.~Are you|are you rea- dy for the com- ing|of the Lord? Are you liv- ing|
w: 2.~Are you|are you wait- ing for the com- ing|of the King? Have you bun- dles|
w: 3.~Have you|have you ris- en from the hea- vy|mid- night sleep? Have you ris- en|
 [FA][FA][FA][FA] [FA][FA][FB][Fc] | [GB]6 [DG][FA] | [GB][GB][GB][Gc] [Gd]2 [=Fd][Fd] | %6
w: as He bids you in His Word? Are|you walk- ing|in the light? Is your hope of|
w: of the gold- en grain to bring? Can|you lay at|Je- sus’ feet A- ny ga- thered|
w: from your slum- ber long and deep? Are|your gar- ments|washed from sin, Are you cleansed and|
 [Ec][EB][EA][EG] [EA]2 [CE][CE] | [B,D][DB] [DB]>[Ec] [DB]2 [DB]>[CA] | [CA] [B,G]4- [B,G] || %9
w: Heav- en bright? Could you wel- come|Him to- night? Are you rea- dy?||
w: sheaves of wheat, There your bless- èd|Lord to greet? Are you rea- dy?|There- fore *|
w: pure with- in? Are you rea- dy|for the King? Are you rea- dy?||
"^Refrain" [DG][=FG] | [Ec][Ec][Ec][Ec] [Ec][Ec]GE | [Ec][DB][DB][DB] [DB][DB][GB][Ac] | %12
w: |||
w: be ye|al- so rea- dy, There- fore be ye|al- so rea- dy, There- fore be ye|
w: |||
 [Bd]2 [GB]2 [DA]2 [EG]2 | [FB]FGG F[FA][GB][Gc] | [Gd]2 [Fd]2 [Gd]2 [=Fd][Fd] | %15
w: |||
w: al- so, be ye|al- so ready For in such an hour,|an hour as ye think|
w: |||
 [Ec][EB][EA][EG]!>(! [Ec]2!>)! [Ec]2 | [DB]3 [DG] (F2 ED) | [DA] [DG]4- [DG] |] %18
w: |||
w: not, The Son of Man com-|eth. * * * *||
w: |||
V:2
 DD | x8 | x8 | x8 | x8 | x8 | x8 | x8 | x6 || x2 | x8 | x8 | x8 | x A4- x3 | x8 | x8 | x4 A4 | %17
w: rea- dy,|||||||||||||||||
w: wait- ing,|||||||||||||such||||
w: ris- en,|||||||||||||||||
 x6 |] %18
w: |
w: |
w: |
V:3
 D,D, | [G,B,]<[G,B,] [G,B,][G,B,] [G,B,]<[G,D] [G,C][G,B,] | %2
 [D,B,][D,A,][D,A,][D,A,] [D,A,]2 [D,A,][D,B,] | [D,C][D,C][D,C][D,C] [D,D][C,D][B,,D][A,,D] | %4
 [G,,D]6 [B,,D][D,D] | [G,D][G,D][G,D][G,C] [G,B,]2 [B,,G,][B,,G,] | %6
 [C,G,][C,G,][C,G,][C,G,] [C,G,]2 [C,G,][C,G,] | [G,,G,][G,,G,] G,>G, G,2 [D,F,]>[D,F,] | %8
 [G,,F,] [G,,G,]4- [G,,G,] || [B,,G,][B,,G,] | [C,G,][C,G,][C,G,][C,G,] [C,G,][C,G,]E,C, | %11
 [G,,G,][G,,G,][G,,G,][G,,G,] [G,,G,][G,,G,] z2 | [G,,G,]2 [G,D]2 [F,D]2 [E,B,]2 | %13
 [D,D][D,D][E,^C][E,C] [D,D][D,D][G,D][A,D] | [B,D]2 (DC) [G,B,]2 [B,,G,][B,,G,] | %15
 [C,G,][C,G,][C,G,][C,G,]!>(! [C,G,]2!>)! [C,G,]2 | [D,G,]3 [D,B,] (D2 C2) | %17
 [G,,C] [G,,B,]4- [G,,B,] |] %18
V:4
 D,D, | x8 | x8 | x8 | x8 | x8 | x8 | x2 G,>G, G,2 x2 | x6 || x2 | x8 | x8 | x8 | x8 | x2 A,2 x4 | %15
 x8 | x4 D,4 | x6 |] %18

